X:210
T:Capt' Macintosh's Delight. VWMLa.210
%%VWML:Anon2-3049-p131-0
F:http://www.vwml.org/record/Anon2/3049/p131
R:Country-dance
S:Anon. MS, late 18thC, Vaughan Williams Mem. Library
O:a
Z:vmp/efdss.Simon Wilson. Reviewed PJH 2008.
M:2/4
L:1/8
Q:1/4=120
K:A
AAAc|GEEE|AAAc|e2ec|\
fd-dB|ec-cA|BcdB|AGFE|\
"P"AAAB|GEEE|AAAc|e2ec|\
"^F"fddB|eccA|!turn!BABc|A2z2|
"^F"eeef|dBBc|ddde|cA-AG|\
.F(B/c/) dB|.F(c/d/) ec|fdcB|AGFE|\
"P"AAAB|GEEE|AAAc|e2ec|\
"^F"fd-dB|ec-cA|!turn!BABc|A2z2|]
